inst/assets/svg/wi-cloud-refresh.svg

<?xml version="1.0" encoding="UTF-8"?>
<svg xmlns="http://www.w3.org/2000/svg" xmlns:xlink="http://www.w3.org/1999/xlink" width="30pt" height="30pt" viewBox="0 0 30 30" version="1.1">
<g id="surface26">
<path style=" stroke:none;fill-rule:nonzero;fill:rgb(0%,0%,0%);fill-opacity:1;" d="M 4.628906 16.910156 C 4.628906 17.570313 4.75 18.191406 5.011719 18.789063 C 5.261719 19.390625 5.601563 19.898438 6.03125 20.339844 C 6.460938 20.769531 6.96875 21.128906 7.558594 21.390625 C 8.148438 21.660156 8.769531 21.808594 9.429688 21.839844 C 9.539063 21.839844 9.601563 21.78125 9.601563 21.671875 L 9.601563 20.339844 C 9.601563 20.21875 9.539063 20.148438 9.429688 20.148438 C 8.558594 20.089844 7.828125 19.738281 7.238281 19.121094 C 6.648438 18.5 6.351563 17.761719 6.351563 16.910156 C 6.351563 16.070313 6.628906 15.339844 7.199219 14.71875 C 7.769531 14.101563 8.460938 13.75 9.300781 13.679688 L 9.820313 13.609375 C 9.949219 13.609375 10.019531 13.550781 10.019531 13.441406 L 10.089844 12.921875 C 10.160156 12.210938 10.390625 11.558594 10.78125 10.96875 C 11.171875 10.390625 11.679688 9.929688 12.300781 9.601563 C 12.921875 9.269531 13.589844 9.109375 14.308594 9.109375 C 15.398438 9.109375 16.359375 9.46875 17.171875 10.191406 C 17.988281 10.910156 18.449219 11.808594 18.558594 12.890625 L 18.621094 13.460938 C 18.621094 13.578125 18.679688 13.640625 18.808594 13.640625 L 20.421875 13.640625 C 21.320313 13.640625 22.089844 13.960938 22.738281 14.609375 C 23.378906 15.25 23.710938 16.019531 23.710938 16.910156 C 23.710938 17.761719 23.410156 18.5 22.820313 19.121094 C 22.230469 19.738281 21.5 20.089844 20.628906 20.148438 C 20.5 20.148438 20.429688 20.210938 20.429688 20.339844 L 20.429688 21.671875 C 20.429688 21.78125 20.5 21.839844 20.628906 21.839844 C 21.96875 21.78125 23.101563 21.269531 24.019531 20.328125 C 24.941406 19.390625 25.398438 18.238281 25.398438 16.910156 C 25.398438 16.019531 25.179688 15.191406 24.730469 14.429688 C 24.28125 13.671875 23.679688 13.070313 22.921875 12.628906 C 22.160156 12.191406 21.328125 11.960938 20.441406 11.960938 L 20.121094 11.960938 C 19.789063 10.628906 19.078125 9.539063 18.011719 8.679688 C 16.898438 7.820313 15.671875 7.398438 14.300781 7.398438 C 12.890625 7.398438 11.640625 7.839844 10.550781 8.730469 C 9.460938 9.621094 8.75 10.738281 8.441406 12.109375 C 7.328125 12.371094 6.421875 12.949219 5.710938 13.851563 C 4.988281 14.738281 4.628906 15.761719 4.628906 16.910156 Z M 10.859375 18.179688 C 10.859375 18.921875 11.050781 19.609375 11.421875 20.25 C 11.789063 20.890625 12.300781 21.390625 12.929688 21.761719 C 13.558594 22.140625 14.25 22.320313 14.988281 22.320313 C 16.140625 22.320313 17.121094 21.910156 17.941406 21.101563 C 18.761719 20.28125 19.171875 19.308594 19.171875 18.179688 C 19.171875 17.949219 19.089844 17.75 18.921875 17.578125 C 18.75 17.410156 18.550781 17.328125 18.308594 17.328125 C 18.070313 17.328125 17.871094 17.410156 17.699219 17.578125 C 17.53125 17.75 17.441406 17.949219 17.441406 18.179688 C 17.441406 18.851563 17.199219 19.421875 16.71875 19.910156 C 16.238281 20.390625 15.671875 20.628906 14.988281 20.628906 C 14.328125 20.628906 13.761719 20.390625 13.28125 19.910156 C 12.800781 19.429688 12.558594 18.851563 12.558594 18.179688 C 12.558594 17.578125 12.738281 17.050781 13.089844 16.578125 C 13.449219 16.109375 13.878906 15.851563 14.398438 15.808594 L 13.988281 16.199219 C 13.839844 16.351563 13.761719 16.539063 13.761719 16.769531 C 13.761719 17.019531 13.828125 17.238281 13.988281 17.429688 C 14.128906 17.578125 14.300781 17.660156 14.519531 17.660156 C 14.738281 17.671875 14.96875 17.589844 15.21875 17.429688 L 17.039063 15.558594 C 17.210938 15.390625 17.289063 15.199219 17.289063 14.980469 C 17.289063 14.730469 17.210938 14.53125 17.039063 14.371094 L 15.21875 12.539063 C 15.03125 12.359375 14.828125 12.28125 14.601563 12.28125 C 14.371094 12.28125 14.171875 12.359375 14.011719 12.53125 C 13.851563 12.699219 13.769531 12.898438 13.769531 13.140625 C 13.769531 13.378906 13.839844 13.570313 14 13.71875 L 14.351563 14.078125 C 13.351563 14.25 12.519531 14.710938 11.859375 15.480469 C 11.191406 16.238281 10.859375 17.140625 10.859375 18.179688 Z M 10.859375 18.179688 "/>
</g>
</svg>

<?xml version="1.0" encoding="utf-8"?>
<!-- Generator: Adobe Illustrator 22.0.1, SVG Export Plug-In . SVG Version: 6.00 Build 0)  -->
<svg version="1.1" id="Layer_1" xmlns="http://www.w3.org/2000/svg" xmlns:xlink="http://www.w3.org/1999/xlink" x="0px" y="0px"
	 viewBox="0 0 30 30" style="enable-background:new 0 0 30 30;" xml:space="preserve">
<path d="M4.63,16.91c0,0.66,0.12,1.28,0.38,1.88c0.25,0.6,0.59,1.11,1.02,1.55c0.43,0.43,0.94,0.79,1.53,1.05
	c0.59,0.27,1.21,0.42,1.87,0.45c0.11,0,0.17-0.06,0.17-0.17v-1.33c0-0.12-0.06-0.19-0.17-0.19c-0.87-0.06-1.6-0.41-2.19-1.03
	s-0.89-1.36-0.89-2.21c0-0.84,0.28-1.57,0.85-2.19c0.57-0.62,1.26-0.97,2.1-1.04l0.52-0.07c0.13,0,0.2-0.06,0.2-0.17l0.07-0.52
	c0.07-0.71,0.3-1.36,0.69-1.95c0.39-0.58,0.9-1.04,1.52-1.37s1.29-0.49,2.01-0.49c1.09,0,2.05,0.36,2.86,1.08
	c0.82,0.72,1.28,1.62,1.39,2.7l0.06,0.57c0,0.12,0.06,0.18,0.19,0.18h1.61c0.9,0,1.67,0.32,2.32,0.97c0.64,0.64,0.97,1.41,0.97,2.3
	c0,0.85-0.3,1.59-0.89,2.21c-0.59,0.62-1.32,0.97-2.19,1.03c-0.13,0-0.2,0.06-0.2,0.19v1.33c0,0.11,0.07,0.17,0.2,0.17
	c1.34-0.06,2.47-0.57,3.39-1.51s1.38-2.09,1.38-3.42c0-0.89-0.22-1.72-0.67-2.48c-0.45-0.76-1.05-1.36-1.81-1.8
	c-0.76-0.44-1.59-0.67-2.48-0.67h-0.32c-0.33-1.33-1.04-2.42-2.11-3.28C16.9,7.82,15.67,7.4,14.3,7.4c-1.41,0-2.66,0.44-3.75,1.33
	s-1.8,2.01-2.11,3.38c-1.11,0.26-2.02,0.84-2.73,1.74C4.99,14.74,4.63,15.76,4.63,16.91z M10.86,18.18c0,0.74,0.19,1.43,0.56,2.07
	s0.88,1.14,1.51,1.51c0.63,0.38,1.32,0.56,2.06,0.56c1.15,0,2.13-0.41,2.95-1.22c0.82-0.82,1.23-1.79,1.23-2.92
	c0-0.23-0.08-0.43-0.25-0.6c-0.17-0.17-0.37-0.25-0.61-0.25c-0.24,0-0.44,0.08-0.61,0.25s-0.26,0.37-0.26,0.6
	c0,0.67-0.24,1.24-0.72,1.73c-0.48,0.48-1.05,0.72-1.73,0.72c-0.66,0-1.23-0.24-1.71-0.72c-0.48-0.48-0.72-1.06-0.72-1.73
	c0-0.6,0.18-1.13,0.53-1.6c0.36-0.47,0.79-0.73,1.31-0.77l-0.41,0.39c-0.15,0.15-0.23,0.34-0.23,0.57c0,0.25,0.07,0.47,0.23,0.66
	c0.14,0.15,0.31,0.23,0.53,0.23c0.22,0.01,0.45-0.07,0.7-0.23l1.82-1.87c0.17-0.17,0.25-0.36,0.25-0.58c0-0.25-0.08-0.45-0.25-0.61
	l-1.82-1.83c-0.19-0.18-0.39-0.26-0.62-0.26c-0.23,0-0.43,0.08-0.59,0.25c-0.16,0.17-0.24,0.37-0.24,0.61
	c0,0.24,0.07,0.43,0.23,0.58l0.35,0.36c-1,0.17-1.83,0.63-2.49,1.4C11.19,16.24,10.86,17.14,10.86,18.18z"/>
</svg>
